X:648
T:Florence Killen's Waltz
C:Cliff Manley
S:Learned from Lucien Mathieu
M:3/4 
L:1/8
Z:As played by Lucien Mathieu at Maine Fiddle Camp, 8/09
Z:<http://tunes.nhcountrydance.com>.
K:G
[| B,>A, |\
"G" G,>B, D>G B>d |"G" e2 d2 B>d   |"G" e2 d2 A>G  |"D" F4 F>E  |
"D7" D>F A>d f>a  |"D7" f2 e2 d2   |"D7" A2 B2 c2  |"G" B4 B,>A,|
"G"G,>B, D>G B>d  |"G" e2 d2 B>A   |"G7" G2 A2 B2  |"C" c4 e2 |
"C" g3 a g>e      |"G" d2 B2 B>d   |"D7" c2 F2 A2  |"G" G3 d e>f|]
[|"G" g2 f2 g2    |"G".d2 "+"e2 G2 |"Am" F4 F>G    |"D7" F4 A>d |
"Am" f4 d2        |"D7" A2 B2 c2   |"G" B4 B>c     |"G" B3 d e>f|
"G"g2 f2 g2       |"G7" d2 B2 G2   |"C" c3 B c>d   |"C#dim" e3 g f>e |
"G"d2 B2 B2       |"D7" {d}c2 F2 A2|"G" G4         |]

